X:1
T:L'onda limpida
T:L'onda limpida
T:Gio.Girolamo Kapsperger
C:Gio.Girolamo Kapsperger
%%score [ 1 2 3 ] { ( 4 6 ) | 5 }
L:1/8
Q:1/4=120
M:3/2
K:C
V:1 treble nm="Soprano 1" snm="S 1"
V:2 treble nm="Soprano 2" snm="S 2"
V:3 bass nm="Bass" snm="B"
V:4 treble nm="BC" snm="BC"
V:6 treble 
V:5 bass 
V:1
 G4 G4 F4 | E6 F2 G4 | c4 c4 _B4 | A6 G2 F4 | A4 B4 c4 | B6 A2 G4 | c4 c4 d4 | e2 d2 c2 B2 A2 B2 | %8
w: L'on- da che|lim- pi- da|so- a- ve|mor- mo- ra,|la- scia'e qui|ven- te- ne|sol' l'au- rea-|ce- * te- * ra _|
w: Stel- la che|lu- ci- da|sen v'a per|l'e- te- re,|o sol che|ra- pi- do,|nel al- to|gi- * ri- * si _|
w: Ben dol- ce|tem- pro- ne|su cor- de'a-|ma- bi- li,|vo- ci dol-|c'if- fi- me,|ci- gni ch'o-|no- * ra- * no _|
 c2 d2 d6 e2 |[M:3/4] c6 :: G2 A2 B2 |[M:3/2] c2 c2 c2 c4 c2 | c6 d2 e4 | d4 c6 c2 | B6 ^F2 G2 A2 | %15
w: re- * ca con|te.|Deh la- scia'il|mon- te Cli- o la-|scia'il fon- te,|mo- v'il bel|pie, ve- ra bel-|
w: si _ bel non|fu.|Ne va- ga'au-|ro- ra ch'il pra- to-|ir- ro- ra,|ri- splen- de|piu, o quan- ti|
w: l'al- * ta bel-|ta.|Ma non per|tan- to des- ta bel|can- * to,|nul- la pie-|ta, ben di sua|
 B2 B2 B2 B4 A2 | G4 G2 G2 A2 B2 | c2 c2 c2 c4 _B2 |"^b" A4 A2 A2 B2 c2 | d4 d2 d2 d2 c2 | %20
w: ta- de, ve- ra'ho- nes-|ta- de ce- les- ti|ra- i qui mi- se-|ra- i, vie- ne ve-|lo- ce scio- gli la|
w: co- ri, pro- va- no'ar-|do- ri, o quan- ti'o|quan- ti po- ve- ri'a-|man- ti, tra van de-|si- ri trag- gon so-|
w: lo- de, sor- ri- d'e|go- de, ma nel cor|ser- ba vien piu su-|per- ba, a- spra du-|rez- za che sde- gn'e|
 B4 B2 c2 c2 B2 | c4 B4 B2 B2 | c6 c2 c4 | A4 B4 c4 | B6 B2 B4 | c4 c4 d4 | e2 d2 c2 B2 A2 B2 | %27
w: vo- ce ch'al Ciel sen|va di che mai|vid- de- si,|bel- ta si|no- bi- le,|ne rai si|splen- * di _ di _|
w: spi- ri, la not- te-|e'l di quan- te|tra l'au- ro,|vo- ci di-|sper- don- si,|de pet- ti|mi- * se- * ri- *|
w: sprez- za, A- mo- r'e|fe ma se tu|spi- ri- mi|vo- ci piu|no- bi- li,|ca- no- ra|Ver- * gi- * ne _|
 c2 d2 d6 e2 |[M:3/4] c6 |] %29
w: mai _ si ve-|dra.|
w: ch'el- * la fe-|ri.|
w: spe- * ro mer-|ce?|
V:2
 E4 D4 C4 | C6 D2 E4 | F4 F6 E2 | F6 ED C4 | F4 F4 E4 | D6 D2 D4 | A4 A4 B4 | c2 B2 A2 G2 A2 G2 | %8
w: L'on- da che|lim- pi- da|so- a- ve|mor- mo- * ra,|la- scia'e qui|ven- te- ne|sol' l'au- rea-|ce- * te- * ra _|
w: Stel- la che|lu- ci- da|sen v'a per|l'e- te _ re,|o sol che|ra- pi- do,|nel al- to|gi- * ri- * si _|
w: Ben dol- ce|tem- pro- ne|su cor- de'a-|ma- bi- * li,|vo- ci dol-|c'if- fi- me,|ci- gni ch'o-|no- * ra- * no _|
 A2 B2 c6 B2 |[M:3/4] c6 :: E2 F2 G2 |[M:3/2] E2 E2 E2 E4 E2 | E6 F2 G4 | G4 G6 ^F2 | %14
w: re- * ca con|te.|Deh la- scia'il|mon- te Cli- o la-|scia'il fon- te,|mo- v'il bel|
w: si _ bel non|fu.|Ne va- ga'au-|ro- ra ch'il pra- to-|ir- ro- ra,|ri- splen- de|
w: l'al- * ta bel-|ta.|Ma non per|tan- to des- ta bel|can- * to,|nul- la pie-|
"^#" G6 D2 E2 F2 |"^#" G2 G2 G2 G4 F2 | E4 E2 B,2 C2 D2 | E2 E2 E2 E4 D2 | C4 C2 C2 D2 E2 | %19
w: pie, ve- ra bel-|ta- de, ve- ra'ho- nes-|ta- de, ce- les- ti|ra- i qui mi- se-|ra- i, vie- ne ve-|
w: piu, a quan- ti|co- ri, pro- va- no'ar-|do- ri, o quan- ti'o|quan- ti po- ve- ri'a-|man- ti, tra van de-|
w: ta, ben di sua|lo- de, sor- ri- d'e|go- de, ma nel cor|ser- ba vien piu su-|per- ba, a- spra du-|
 F4 F2 F2 F2 E2 | D4 D2 G2 A2 B2 | A4 D4 D2 D2 | E6 E2 E4 | F4 G4 A4 | D6 D2 D4 | A4 A4 B4 | %26
w: lo- ce scio- gli la|vo- ce, ch'al Ciel sen|va di che mai|vid- de- si,|bel- ta si|no- bi- le,|ne rai si|
w: si- ri trag- gon so-|spi- ri, la not- te-|e'l di quan- te|tra l'au- ro,|vo- ci di-|sper- don- si,|de pet- ti|
w: rez- za che sde- gn'e|sprez- za, A- mo- r'e|fe ma se tu|spi- ri- mi|vo- ci piu|no- bi- li,|ca- no- ra|
 c2 B2 A2 G2 A2 G2 | A2 B2 c6 B2 |[M:3/4] c6 |] %29
w: splen- * di- * di _|mai _ si ve-|dra.|
w: mi- * se- * ri- *|ch'el- * la fe-|ri.|
w: Ver- * gi- * ne _|spe- * ro mer-|ce?|
V:3
 C4 B,4 A,4 | C6 C2 C4 | A,4 G,4 G,4 | F,6 F,2 F,4 | D,4 D,4 C,4 | G,6 G,2 G,4 | F,4 E,4 D,4 | %7
w: L'on- da che|lim- pi- da|so- a- ve|mor- mo- ra|la- scia'e qui|ven- te- ne|sol' l'au- rea-|
w: Stel- la che|lu- ci- da|sen v'a per|l'e- te- re,|o sol che|ra- pi- do,|el al- to|
w: Ben dol- ce|tem- pro- ne|su cor de'a-|ma- bi- li,|vo- ci dol-|c'if- fi- me,|ci- gni ch'o-|
 C,6 F,2 F,4 | E,2 F,2 G,6 G,2 |[M:3/4] C,6 :: C,2 C,2 C,2 |[M:3/2] C,2 C,2 C,2 C,4 C,2 | %12
w: ce- te- ra|re- * ca con|te.|Deh la- scia'il|mon- te Cli- o la-|
w: g- ri- si|si _ bel non|fu.|Ne va- ga'au-|ro- ra ch'il pra- to-|
w: no- ra- no|l'al- * ta bel-|ta.|Ma non per|tan- to des- ta bl|
 C,6 G,,2 C,4 | B,,4 A,,6 D,2 | G,,6 G,,2 G,,2 G,,2 | G,,2 G,,2 G,,2 G,,4 G,,2 | %16
w: scia'il fon- te,|mo- v'il bel|pie, ve- ra bel-|ta- de, ve- ra'ho- nes-|
w: ir- ro- ra|ri- splen- de|piu, a quan- ti|co- ri, pro- va- no'ar-|
w: can- * to,|nul la pie-|ta, ben di sua|lo- de, or- ri- d'e|
 C,4 C,2 C,2 C,2 C,2 | C,2 C,2 C,2 C,4 C,2 | F,4 F,2 F,2 F,2 F,2 | D,4 D,2 D,2 D,2 D,2 | %20
w: ta- de ce- les- ti|ra- i qui- mi- se-|ra- i, vie- ne ve-|lo- ce scio- gli la|
w: do- ri, o quan- ti'o|quan- ti po- ve- ri'a-|man- ti, tra van de-|si- ri trag- gon so-|
w: go- de, ma nel cor|ser- ba vien piu su-|per- ba, a- spra du-|rez- za che sde- gn'e|
 G,4 G,2 E,2 F,2 G,2 | A,4 G,4 G,2 G,2 | C,6 C,2 C,4 | D,4 D,4 C,4 | G,6 G,2 G,4 | F,4 E,4 D,4 | %26
w: vo- ce, ch'al Ciel sen|va di che- mai|vid- de- si,|bel- ta si|no- bi- le,|ne rai si|
w: spi- ri, la not- te-|e'l di quan- te|tra l'au- ro,|vo- ci dis-|per- don- si,|de pet- ti|
w: sprez- za, A- mo- r'e|fe ma se tu|sp- ri- mi|vo- ci piu|no- bi- li,|ca- no- ra|
 C,6 F,2 F,4 | E,4 G,6 G,2 |[M:3/4] C,6 |] %29
w: splen- di- di|mai si ve-|dra.|
w: mi- se- ri-|ch'el- la fe-|ri.|
w: Ver- gi- ne|spe- ro mer-|ce?|
V:4
 [EG]4 [DG]4 [CA]4 | [EG]6 [DF]2 [EG]4 | c4 c4 _B4 | [FAc]12 | [FA]4 [FB]4 [EGc]4 | [GBd]12 | %6
 [FAc]4 [Gc]4 [FB]4 | [EGc]6 [DB]2 A2 B2 | [Ac]2 [Bd]2 [Gd]2 c4 [Be]2 |[M:3/4] [EGc]6 :: [EGc]6 | %11
[M:3/2] [EGc]12 | [EGc]12 | [Gd]4 [Ac]6 [D^FA]2 | [GBd]12 | [GBd]12 | [EGc]12 | [EGc]12 | [FAc]12 | %19
 [FAd]12 | [GBd]12 | [EAc]4 [GBd]4 [GB]4 | [EGc]12 | [DFA]4 [DB]4 [Ec]4 | [GBd]12 | %25
 [CA]4 [Ac]4 [FBd]4 | [Ec]6 [Fc]6 | [Gc]4 [Gd]4 c2 B2 |[M:3/4] [EGc]6 |] %29
V:5
 C4 B,4 A,4 | C6 C2 C4 | A,4 G,4 G,4 | F,6 F,2 F,4 | D,4 D,4 C,4 | G,6 G,2 G,4 | F,4 E,4 D,4 | %7
 C,6 F,2 F,4 | A,2 F,2 G,6 G,2 |[M:3/4] C,6 :: C,2 C,2 C,2 |[M:3/2] C,2 C,2 C,2 C,4 C,2 | %12
 C,6 G,,2 C,4 | B,,4 A,,6 D,2 | G,,6 G,,2 G,,2 G,,2 | G,,2 G,,2 G,,2 G,,4 G,,2 | %16
 C,4 C,2 C,2 C,2 C,2 | C,2 C,2 C,2 C,4 C,2 | F,4 F,2 F,2 F,2 F,2 | D,4 D,2 D,2 D,2 D,2 | %20
 G,4 G,2 E,2 F,2 G,2 | A,4 G,4 G,2 G,2 | C,6 C,2 C,4 | D,4 G,4 C,4 | G,6 G,2 G,4 | F,4 E,4 D,4 | %26
 C,6 F,2 F,4 | E,4 G,6 G,2 |[M:3/4] C,6 |] %29
V:6
 x12 | x12 | F4 F6 E2 | x12 | x12 | x12 | x12 | x12 | x12 |[M:3/4] x6 :: x6 |[M:3/2] x12 | x12 | %13
 x12 | x12 | x12 | x12 | x12 | x12 | x12 | x12 | x12 | x12 | x12 | x12 | x12 | x12 | x12 | %28
[M:3/4] x6 |] %29

